X:9
T:GB/7c/9 Come All You Jolly Ploughboys
%%VWML:GB-7c-9-0
F:http://www.vwml.org/record/GB/7c/9
T:Version 1 of 4
C:Mr. Knight (c. 60), Horsham, IV. 07
C:Transcribed by Simon Furey and Lewis Jones
L:1/4
M:3/4
I:linebreak $
K:Bb
F | F B F |"^(a)" B B F | G B G | F2 F | B c d | f e d | c3- | c2 d |$ f c d | e e f | d B c | F2 F | B d f | e c A | B2 ||$ F | F B F |"^(a) var." B2 F | G B G | F2 F | B c d | f e d | c3- | c2 d |$ f c d | e e f | d B c | F2 F | B d f | e c A | B2 |]

